X:226
T:Hard Times Come Again No More
Z:Jack Campin, http://www.campin.me.uk/
F:Jack Campin's Nine-Note Tunebook
% last edit 03-02-2013
C:Stephen Foster 
M:4/4
L:1/8
Q:1/4=78
K:D
DE|F2 FF F A2 F |ED  DE F2\
B2|A2 F2 FD  E>E|D6     :|
FG|A3  A A2 ^GA |B4     A2\
z2|d2 A2 B2  A2 |F>F FD E2
DE|F2 FF F A2 F |E>D DE F2\
B2|A2 F2 FD  E>E|D6     |]

